/* XPM */
static char *enemy_2_xpm[] = {
"32 32 2 1",
". c #4b692f",
"X c #FFA500",
"................................",
"................................",
"................................",
"................................",
"...........XXXXXXXXXX...........",
".........XXXXXXXXXXXXXX.........",
"........XXXXXXXXXXXXXXXX........",
"........XXXXXXXXXXXXXXXX........",
".......XXXXXXXXXXXXXXXXXX.......",
".......XXXXX..XXXX..XXXXX.......",
".......XXXXX..XXXX..XXXXX.......",
".......XXXXXXXXXXXXXXXXXX.......",
".......XXXXXXXXXXXXXXXXXX.......",
"........XXXXXXXXXXXXXXXX........",
"........XXXXXXXXXXXXXXXX........",
".........XXXXXXXXXXXXXX.........",
"...........XXXXXXXXXX...........",
"................................",
"................................",
"................................",
"................................",
"................................",
"................................",
"................................",
"................................",
"................................",
"................................",
"................................",
"................................",
"................................",
"................................",
"................................",
"................................",
};
