/* XPM */
static char *exit_xpm[] = {
"32 32 7 1 ",
"  c #4b692f",
". c #FFFF00",
"X c #5D4037",
"o c #8D6E63",
"O c #757575",
"1 c #374e24",
"2 c #6a8c3e",
"                                ",
"                                ",
"      ....................   1  ",
"     2.OOOOOOOOOOOOOOOOOO.      ",
"      .OXXXXXXXXXXXXXXXXO.      ",
"      .OX......XX......XO.      ",
"   1  .OX......XX......XO.   1  ",
"      .OXoXXXXoXXoXXXXoXO.      ",
"      .OXoXooXoXXoXooXoXO.      ",
"      .OXoXXXXoXXoXXXXoXO.2     ",
"      .OXooooooXXooooooXO.      ",
"      .OXXXXXXXXXXXXXXXXO.      ",
"      .OXooooooXXooooooXO.      ",
"  1   .OXooooooXXooooooXO.      ",
"      .OXoXXXXoXXoXXXXoXO.      ",
"      .OXoXooXoXXoXooXoXO.   1  ",
"      .OXoXXXXoXXoXXXXoXO.      ",
"      .OXooooooXXooooooXO.      ",
"      .OXXXXXXXXXXXXXXXXO.      ",
"      .OXooooooXXooooooXO. 1    ",
"      .OXooooooXXooooooXO.      ",
"      .OXoXXXXoXXoXXXXoXO.      ",
"      .OXoXooXoXXoXooXoXO.      ",
"      .OXoXXXXoXXoXXXXoXO.      ",
"      .OXooooooXXooooooXO.      ",
"      .OXooooooXXooooooXO. 2    ",
"      .OXooooooXXooooooXO.      ",
"     2.OXooooooXXooooooXO.      ",
"      .OXXXXXXXXXXXXXXXXO.      ",
"      .OOOOOOOOOOOOOOOOOO.      ",
"      ....................      ",
"                                "
};